static/logos/discord-glyph-color.svg

<svg width="50" height="39" viewBox="0 0 50 39" fill="none" xmlns="http://www.w3.org/2000/svg">
<g clip-path="url(#clip0_1_3025)">
<path d="M42.326 3.24189C39.0915 1.7274 35.6331 0.626682 32.0176 0C31.5734 0.803439 31.0547 1.88406 30.6971 2.74374C26.8535 2.16527 23.0453 2.16527 19.2726 2.74374C18.915 1.88406 18.3844 0.803439 17.9365 0C14.3169 0.626682 10.8546 1.73142 7.62021 3.24992C1.09643 13.1161 -0.672065 22.7374 0.212182 32.2219C4.5391 35.4558 8.73239 37.4202 12.8549 38.7056C13.8728 37.3037 14.7806 35.8134 15.5627 34.2426C14.0732 33.6761 12.6467 32.9773 11.2987 32.1656C11.6563 31.9006 12.0061 31.6234 12.344 31.3382C20.5656 35.1866 29.4984 35.1866 37.6218 31.3382C37.9635 31.6234 38.3134 31.9006 38.6671 32.1656C37.3152 32.9811 35.8847 33.6802 34.3952 34.2466C35.1773 35.8134 36.0811 37.3077 37.1029 38.7097C41.2294 37.4242 45.4266 35.4598 49.7535 32.2219C50.7911 21.2269 47.9811 11.694 42.326 3.24189ZM16.6827 26.389C14.2147 26.389 12.1908 24.0831 12.1908 21.2752C12.1908 18.4671 14.1715 16.1573 16.6827 16.1573C19.194 16.1573 21.2179 18.4631 21.1747 21.2752C21.1787 24.0831 19.194 26.389 16.6827 26.389ZM33.2831 26.389C30.815 26.389 28.791 24.0831 28.791 21.2752C28.791 18.4671 30.7718 16.1573 33.2831 16.1573C35.7942 16.1573 37.8182 18.4631 37.775 21.2752C37.775 24.0831 35.7942 26.389 33.2831 26.389Z" fill="#5865F2"/>
</g>
<defs>
<clipPath id="clip0_1_3025">
<rect width="50" height="38.7097" fill="white"/>
</clipPath>
</defs>
</svg>

<svg xmlns="http://www.w3.org/2000/svg" width="82.051" height="64" fill="none" viewBox="0 0 50 39"><g clip-path="url(#a)"><path fill="#5865F2" d="M42.326 3.242A40.673 40.673 0 0 0 32.018 0a30.194 30.194 0 0 0-1.32 2.744 37.82 37.82 0 0 0-11.425 0A29.36 29.36 0 0 0 17.936 0 40.533 40.533 0 0 0 7.62 3.25C1.096 13.116-.672 22.737.212 32.222c4.327 3.234 8.52 5.198 12.643 6.484a31.462 31.462 0 0 0 2.708-4.463 26.605 26.605 0 0 1-4.264-2.077c.357-.265.707-.543 1.045-.828 8.222 3.849 17.154 3.849 25.278 0 .342.285.691.563 1.045.828a26.536 26.536 0 0 1-4.272 2.08 31.332 31.332 0 0 0 2.708 4.464c4.126-1.286 8.324-3.25 12.65-6.488 1.038-10.995-1.772-20.528-7.427-28.98ZM16.683 26.389c-2.468 0-4.492-2.306-4.492-5.114s1.98-5.118 4.492-5.118c2.511 0 4.535 2.306 4.492 5.118.004 2.808-1.981 5.114-4.492 5.114Zm16.6 0c-2.468 0-4.492-2.306-4.492-5.114s1.98-5.118 4.492-5.118c2.511 0 4.535 2.306 4.492 5.118 0 2.808-1.98 5.114-4.492 5.114Z"/></g><defs><clipPath id="a"><path fill="#fff" d="M0 0h50v38.71H0z"/></clipPath></defs></svg>
